public/favicon.svg

<svg fill="none" height="64" viewBox="0 0 64 64" width="64" xmlns="http://www.w3.org/2000/svg"><path d="m0 0h64v64h-64z" fill="#000"/><path clip-rule="evenodd" d="m16 33c0-10.4934 8.5066-19 19-19h11v6h-11c-7.1797 0-13 5.8203-13 13s5.8203 13 13 13h11v6h-11c-10.4934 0-19-8.5066-19-19z" fill="#fff" fill-rule="evenodd"/></svg>

<svg width="64" height="64" viewBox="0 0 64 64" fill="none" xmlns="http://www.w3.org/2000/svg">
<rect width="64" height="64" rx="8" fill="black"/>
<path fill-rule="evenodd" clip-rule="evenodd" d="M16 33C16 22.5066 24.5066 14 35 14H46V20H35C27.8203 20 22 25.8203 22 33C22 40.1797 27.8203 46 35 46H46V52H35C24.5066 52 16 43.4934 16 33Z" fill="white"/>
</svg>
